X:1
T:The Fog Galliard
M:3/4
L:1/2
K:C
 B A/2| G ^F/2| E G/2| A3/2| B d/2| c B/2| A B/2| A3/2| B A/2| G ^F/2|\
 E G/2| A3/2| B/2 d/2 c/2-| c/4c/4 B/2 A/2| G3/2-| G3/2| c c/2| c e/2|\
 d e/2| d z/2| c3/4 c/4 B/2| A/2 c/2 B/2| A3/2-| A3/2| B A/2| G ^F/2|\
 E G/2| A3/2| B/2 d/2 c/2-| c/4c/4 B/2 A/2| G3/2-| G3/2|
